X: 1
T: Tam Kreiz
%O: Brittany, France
S: PDF from Steve Gruverman
S: As learned from Dominique Jouve, (9/04) and from the recording "Sonneurs de Clarinette en Bretagne".
M: 3/4
L: 1/8
Q: 3/8=66
K: G
"A"\
|: Bdc \
| "G"B3 ABA | "G"G3 ABc | "G"d3 "Am"e3 | "G"d3 :|
Q: 3/8=108
"B"[|] B2c | "G"d2e d2c | "G"B2A B2c | "G"d2c BAG | "D"A3
 y/    B2c | "G"d3 "Am"e3  | "G"d2c B2d | "C"c2"rit."B "D"A3 | "G"G3 |]

%%sep 1 1 500
%%sep 1 1 500


